X:1
T:Title
%%score { ( 1 3 ) | ( 2 4 ) }
L:1/8
M:6/8
K:F
V:1 treble nm="Grand Piano"
V:3 treble 
V:2 bass 
V:4 bass 
V:1
 z3 z2[Q:1/4=87] A | A2 A c2 F | E2 B B2 B | [GB]2 [Bd] [Ac]2 [EG] |[M:5/8] A-A- A3 |[M:1/8] A | %6
[M:3/4] A2 A c2 [_EFc] | [DFc]2 [DFB] [Fd]2 [Fd] | [Fc]2 [CF] [EA]2 [EG] | %9
[M:5/8] [CF]-[CF]- [CF]3 |[M:3/16] [Fc]3/2 |[M:3/4] [Ec]>[EG] [EA][EB]- [EB]/[EA]/[EG] | F6 | %13
 [DF]>[DE] [DF] [FB]2 [Fd] |[M:5/8] [Fc]-[Fc]- [Fc]3 |[M:1/8] [Fc] |[M:3/4] [Af]2 [Fc] [Fc]2 [FA] | %17
 [FB]2 [Fc] [Fd]2 F/-[DFG]/ | [CFA]2 .[CFc] [CFA]2 [B,EG] |[M:5/8] [A,CF]-[A,CF]- [A,CF]3 |] %20
V:2
 z3 z2 [F,CF] | [F,CF]2 [F,CF] [F,A,F]2 [F,A,C] | [G,C]2 [G,CE] [G,CE]2 [G,CE] | %3
 [C,C]2 [C,C] [C,C]2 [C,C] |[M:5/8] [F,CF]-[F,CF]- [F,CF]3 |[M:1/8] [F,CF] | %6
[M:3/4] [F,CF]2 [F,CF] [F,A,F]2 A,, | B,,2 B,, [B,,B,]2 [B,,B,] | [C,A,]2 [C,A,] [C,C]2 [C,B,] | %9
[M:5/8] [F,A,]-[F,A,]- [F,A,]3 |[M:3/16] [F,A,]3/2 | %11
[M:3/4] [C,C]>[C,C] [C,C][C,G,]- [C,G,]/[C,A,]/[C,B,] | [F,A,C][A,,A,] [C,A,] .[F,A,]3 | %13
 [B,,B,]>[B,,B,] [B,,B,] [D,B,]2 [B,,B,] |[M:5/8] [F,A,]-[F,A,]- [F,A,]3 |[M:1/8] [F,A,] | %16
[M:3/4] [F,C]2 [F,A,] [F,A,]2 [_E,C] | [D,B,]2 [C,A,] [B,,B,]2 A,,/B,,/ | %18
 C,2 z/[K:treble] B/[K:bass] C,2 C, |[M:5/8] F,-F,- F,3 |] %20
V:3
 x6 | x6 | x6 | x6 |[M:5/8] x5 |[M:1/8] x |[M:3/4] x6 | x6 | x6 |[M:5/8] x5 |[M:3/16] x3/2 | %11
[M:3/4] x6 | z C C .C3 | x6 |[M:5/8] x5 |[M:1/8] x |[M:3/4] x6 | z2 z2 z .C | x6 |[M:5/8] x5 |] %20
V:4
 x6 | x6 | x6 | x6 |[M:5/8] x5 |[M:1/8] x |[M:3/4] x6 | x6 | x6 |[M:5/8] x5 |[M:3/16] x3/2 | %11
[M:3/4] x6 | x6 | x6 |[M:5/8] x5 |[M:1/8] x |[M:3/4] x6 | x6 | z2 .C,2[K:treble][K:bass] z2 | %19
[M:5/8] x5 |] %20

